;Sliced by ideaMaker 4.1.1.5050, 2021-05-04 22:06:17 UTC+0200
;Dimension: 235.000 235.000 250.000 0.400
;Plate Shape: 0
;Origin Center: 0
;Extruder Offset #1: 25.000 0.000
;Filament Diameter #1: 1.750
;Filament Diameter #2: 1.750
;Filament Compensation #1: 95.00
;Filament Compensation #2: 90.00
;Filament Density #1: 1240.00
;Filament Density #2: 1240.00
;Bounding Box: 91.496 143.502 78.811 166.622 0.000 23.640
;Model Gap: 0.000
M221 T0 S95.00
M140 S55.00
M104 T0 S205.00
M109 T0 S205.00
T0
M190 S55.00
G21                      ; set units to Millimetres
G90                      ; absolute positioning
M82                      ; set extruder to absolute mode
G92 E0                   ; set extruder position to 0
G28 ; home all axes
g29
M117 Purge extruder
G92 E0 ; reset extruder
G1 Z1.0 F3000 ; move z up little to prevent scratching of surface
G1 X0.1 Y20 Z0.3 F5000.0 ; move to start-line position
G1 X0.1 Y200.0 Z0.3 F1500.0 E15 ; draw 1st line
G1 X0.4 Y200.0 Z0.3 F5000.0 ; move to side a little
G1 X0.4 Y20 Z0.3 F1500.0 E30 ; draw 2nd line
; G1 E27 F3000 ; retract filament 3mm
G92 E0 ; reset extruder
; done purging extruder
G1 Z1.0 F3000 ; move z up little to prevent scratching of surface
;end of Start GCode
;TOTAL_NUM: 1
;PRINTING_TIME: 0
;REMAINING_TIME: 3063
;LAYER:0
;Z:0.240
;HEIGHT:0.240
M106 S0
;PRINTING: NON-OBJECT
;PRINTING_ID: -1
G1 F3600 E-6.0000
G0 F6000 X104.589 Y86.403
G0 F300 Z0.240
;TYPE:SKIRT
;WIDTH:0.400
G1 F1500 E0.0000
G1 F600 X105.456 Y85.281 E0.0566
G1 X106.282 Y84.297 E0.1079
G1 X107.103 Y83.394 E0.1566
G1 X107.500 Y82.988 E0.1792
G1 X108.386 Y82.167 E0.2275
G1 X109.289 Y81.443 E0.2736
G1 X110.216 Y80.815 E0.3183
G1 X111.256 Y80.226 E0.3660
G1 X111.779 Y79.982 E0.3891
G1 X112.879 Y79.541 E0.4364
G1 X113.703 Y79.291 E0.4707
G1 X114.855 Y79.031 E0.5179
G1 X116.032 Y78.867 E0.5653
G1 X117.242 Y78.811 E0.6137
G1 X118.174 Y78.820 E0.6509
G1 X118.670 Y78.847 E0.6707
G1 X119.814 Y78.975 E0.7166
G1 X120.180 Y79.037 E0.7314
G1 X121.152 Y79.251 E0.7712
G1 X122.187 Y79.564 E0.8143
G1 X123.096 Y79.927 E0.8534
G1 X123.829 Y80.268 E0.8857
G1 X124.789 Y80.818 E0.9298
G1 X125.487 Y81.279 E0.9632
G1 X126.256 Y81.869 E1.0019
G1 X127.138 Y82.636 E1.0485
G1 X127.727 Y83.222 E1.0817
G1 X128.898 Y84.506 E1.1511
G1 X129.830 Y85.643 E1.2097
G1 X130.676 Y86.764 E1.2658
G1 X131.235 Y87.563 E1.3047
G1 X131.929 Y88.638 E1.3558
G1 X132.599 Y89.815 E1.4098
G1 X133.013 Y90.652 E1.4471
G1 X133.279 Y91.257 E1.4735
G1 X133.685 Y92.336 E1.5195
G1 X133.866 Y92.912 E1.5436
G1 X134.167 Y94.113 E1.5930
G1 X134.271 Y94.666 E1.6155
G1 X134.420 Y95.771 E1.6600
G1 X134.494 Y96.901 E1.7052
G1 X134.614 Y101.959 E1.9071
G1 X134.605 Y103.633 E1.9739
G1 X134.517 Y105.412 E2.0450
G1 X135.356 Y105.821 E2.0823
G1 X135.758 Y106.046 E2.1006
G1 X136.562 Y106.546 E2.1384
G1 X137.615 Y107.317 E2.1905
G1 X138.316 Y107.917 E2.2273
G1 X139.167 Y108.762 E2.2752
G1 X139.697 Y109.393 E2.3081
G1 X140.202 Y110.086 E2.3423
G1 X140.480 Y110.368 E2.3581
G1 X141.001 Y110.984 E2.3903
G1 X141.571 Y111.765 E2.4289
G1 X142.005 Y112.480 E2.4623
G1 X142.348 Y113.148 E2.4923
G1 X142.676 Y113.886 E2.5245
G1 X142.965 Y114.707 E2.5592
G1 X143.178 Y115.512 E2.5925
G1 X143.261 Y115.929 E2.6094
G1 X143.448 Y117.149 E2.6587
G1 X143.502 Y118.002 E2.6928
G1 X143.499 Y118.940 E2.7303
G1 X143.396 Y120.227 E2.7818
G1 X143.298 Y120.945 E2.8107
G1 X143.115 Y121.929 E2.8507
G1 X142.972 Y122.534 E2.8755
G1 X142.750 Y123.335 E2.9086
G1 X142.372 Y124.391 E2.9534
G1 X142.231 Y124.727 E2.9680
G1 X141.646 Y125.910 E3.0206
G1 X141.039 Y126.886 E3.0665
G1 X140.865 Y127.134 E3.0786
G1 X140.355 Y127.799 E3.1120
G1 X139.794 Y128.429 E3.1457
G1 X139.497 Y128.820 E3.1653
G1 X138.998 Y129.425 E3.1966
G1 X138.645 Y129.808 E3.2174
G1 X139.049 Y130.525 E3.2502
G1 X139.328 Y131.092 E3.2755
G1 X139.802 Y132.215 E3.3241
G1 X140.023 Y132.840 E3.3506
G1 X140.262 Y133.612 E3.3828
G1 X140.389 Y134.135 E3.4043
G1 X140.535 Y134.821 E3.4323
G1 X140.672 Y135.617 E3.4645
G1 X140.773 Y136.626 E3.5050
G1 X140.813 Y137.530 E3.5411
G1 X140.813 Y138.018 E3.5606
G1 X140.765 Y139.129 E3.6050
G1 X140.719 Y139.662 E3.6263
G1 X140.592 Y140.684 E3.6674
G1 X140.416 Y141.698 E3.7085
G1 X140.085 Y143.258 E3.7722
G1 X139.621 Y145.161 E3.8504
G1 X139.368 Y146.081 E3.8884
G1 X138.984 Y147.280 E3.9387
G1 X138.697 Y148.044 E3.9713
G1 X138.399 Y148.752 E4.0019
G1 X138.240 Y149.449 E4.0304
G1 X138.098 Y149.931 E4.0505
G1 X137.690 Y151.092 E4.0996
G1 X137.225 Y152.081 E4.1432
G1 X137.053 Y152.400 E4.1577
G1 X136.625 Y153.121 E4.1912
G1 X136.160 Y153.782 E4.2234
G1 X135.605 Y154.453 E4.2582
G1 X135.019 Y155.054 E4.2917
G1 X134.412 Y155.587 E4.3239
G1 X133.739 Y156.090 E4.3575
G1 X133.048 Y156.529 E4.3901
G1 X132.339 Y156.917 E4.4224
G1 X131.544 Y157.274 E4.4572
G1 X130.753 Y157.554 E4.4907
G1 X129.938 Y157.772 E4.5243
G1 X129.505 Y157.848 E4.5419
G1 X129.282 Y158.519 E4.5701
G1 X128.891 Y159.439 E4.6100
G1 X128.519 Y160.192 E4.6435
G1 X128.106 Y160.886 E4.6758
G1 X127.805 Y161.327 E4.6971
G1 X127.068 Y162.290 E4.7455
G1 X126.522 Y162.885 E4.7777
G1 X125.702 Y163.639 E4.8222
G1 X125.048 Y164.166 E4.8557
G1 X124.361 Y164.636 E4.8889
G1 X123.956 Y164.878 E4.9077
G1 X122.912 Y165.435 E4.9550
G1 X121.787 Y165.888 E5.0034
G1 X121.344 Y166.037 E5.0220
G1 X120.531 Y166.272 E5.0558
G1 X119.374 Y166.491 E5.1028
G1 X118.113 Y166.622 E5.1534
G1 X117.023 Y166.621 E5.1969
G1 X115.761 Y166.517 E5.2474
G1 X114.757 Y166.332 E5.2882
G1 X113.546 Y166.011 E5.3382
G1 X112.644 Y165.676 E5.3766
G1 X111.642 Y165.216 E5.4206
G1 X111.072 Y164.897 E5.4467
G1 X110.123 Y164.290 E5.4916
G1 X109.550 Y163.851 E5.5204
G1 X108.708 Y163.115 E5.5651
G1 X108.070 Y162.443 E5.6021
G1 X107.363 Y161.579 E5.6466
G1 X106.801 Y160.735 E5.6871
G1 X106.252 Y159.756 E5.7319
G1 X105.963 Y159.128 E5.7595
G1 X105.611 Y158.220 E5.7983
G1 X105.492 Y157.850 E5.8139
G1 X105.022 Y157.762 E5.8329
G1 X104.242 Y157.553 E5.8652
G1 X103.414 Y157.257 E5.9003
G1 X102.221 Y156.689 E5.9530
G1 X101.500 Y156.257 E5.9865
G1 X100.842 Y155.789 E6.0188
G1 X100.198 Y155.251 E6.0523
G1 X99.576 Y154.639 E6.0871
G1 X98.954 Y153.916 E6.1252
G1 X98.472 Y153.268 E6.1574
G1 X98.009 Y152.529 E6.1922
G1 X97.623 Y151.789 E6.2255
G1 X97.093 Y150.517 E6.2805
G1 X96.995 Y150.232 E6.2925
G1 X96.698 Y149.192 E6.3357
G1 X96.601 Y148.745 E6.3540
G1 X96.241 Y147.889 E6.3910
G1 X96.026 Y147.307 E6.4158
G1 X95.803 Y146.637 E6.4440
G1 X95.411 Y145.276 E6.5005
G1 X94.984 Y143.550 E6.5715
G1 X94.553 Y141.540 E6.6535
G1 X94.418 Y140.744 E6.6857
G1 X94.315 Y139.939 E6.7181
G1 X94.231 Y139.005 E6.7556
G1 X94.191 Y137.936 E6.7983
G1 X94.201 Y137.193 E6.8279
G1 X94.272 Y136.102 E6.8715
G1 X94.434 Y134.955 E6.9178
G1 X94.687 Y133.819 E6.9642
G1 X94.827 Y133.315 E6.9851
G1 X95.173 Y132.282 E7.0286
G1 X95.418 Y131.661 E7.0552
G1 X95.758 Y130.897 E7.0886
G1 X96.350 Y129.806 E7.1382
G1 X96.108 Y129.542 E7.1524
G1 X95.496 Y128.813 E7.1904
G1 X95.178 Y128.396 E7.2114
G1 X94.462 Y127.570 E7.2550
G1 X93.958 Y126.871 E7.2894
G1 X93.293 Y125.804 E7.3396
G1 X92.878 Y124.966 E7.3769
G1 X92.718 Y124.603 E7.3927
G1 X92.422 Y123.851 E7.4250
G1 X92.269 Y123.385 E7.4446
G1 X91.945 Y122.208 E7.4933
G1 X91.850 Y121.778 E7.5109
G1 X91.708 Y120.992 E7.5427
G1 X91.619 Y120.365 E7.5680
G1 X91.537 Y119.559 E7.6003
G1 X91.510 Y119.122 E7.6178
G1 X91.496 Y118.136 E7.6572
G1 X91.563 Y117.046 E7.7008
G1 X91.671 Y116.273 E7.7319
G1 X91.838 Y115.429 E7.7663
G1 X92.065 Y114.621 E7.7998
G1 X92.361 Y113.815 E7.8340
G1 X92.698 Y113.046 E7.8675
G1 X93.097 Y112.302 E7.9012
G1 X93.715 Y111.365 E7.9460
G1 X94.230 Y110.700 E7.9796
G1 X94.810 Y110.069 E8.0138
G1 X95.531 Y109.110 E8.0617
G1 X96.070 Y108.508 E8.0939
G1 X96.784 Y107.827 E8.1333
G1 X97.664 Y107.098 E8.1789
G1 X98.547 Y106.475 E8.2221
G1 X99.516 Y105.890 E8.2672
G1 X100.260 Y105.506 E8.3007
G1 X100.482 Y105.408 E8.3103
G1 X100.393 Y103.537 E8.3851
G1 X100.387 Y101.897 E8.4506
G1 X100.507 Y96.877 E8.6510
G1 X100.586 Y95.725 E8.6971
G1 X100.755 Y94.500 E8.7464
G1 X100.970 Y93.517 E8.7866
G1 X101.120 Y92.960 E8.8096
G1 X101.425 Y92.012 E8.8493
G1 X101.878 Y90.890 E8.8976
G1 X102.448 Y89.724 E8.9494
G1 X102.764 Y89.155 E8.9754
G1 X103.074 Y88.632 E8.9997
G1 X103.783 Y87.535 E9.0518
G1 X104.589 Y86.403 E9.1073
G0 F6000 X104.905 Y86.648
G1 F600 X105.763 Y85.538 E9.1633
G1 X106.578 Y84.566 E9.2139
G1 X107.399 Y83.663 E9.2626
G1 X107.772 Y83.281 E9.2839
G1 X108.636 Y82.479 E9.3310
G1 X109.514 Y81.774 E9.3759
G1 X110.413 Y81.163 E9.4193
G1 X111.426 Y80.588 E9.4658
G1 X111.928 Y80.353 E9.4879
G1 X112.996 Y79.924 E9.5338
G1 X113.792 Y79.681 E9.5671
G1 X114.911 Y79.427 E9.6129
G1 X116.050 Y79.267 E9.6588
G1 X117.260 Y79.211 E9.7071
G1 X118.170 Y79.220 E9.7434
G1 X118.626 Y79.245 E9.7617
G1 X119.770 Y79.373 E9.8076
G1 X120.095 Y79.428 E9.8208
G1 X121.037 Y79.634 E9.8593
G1 X122.039 Y79.936 E9.9010
G1 X122.927 Y80.290 E9.9392
G1 X123.660 Y80.631 E9.9714
G1 X124.569 Y81.152 E10.0133
G1 X125.244 Y81.596 E10.0455
G1 X125.994 Y82.171 E10.0832
G1 X126.856 Y82.920 E10.1288
G1 X127.431 Y83.492 E10.1612
G1 X128.602 Y84.776 E10.2305
G1 X129.511 Y85.884 E10.2877
G1 X130.348 Y86.993 E10.3432
G1 X130.899 Y87.780 E10.3815
G1 X131.581 Y88.836 E10.4317
G1 X132.251 Y90.013 E10.4858
G1 X132.647 Y90.813 E10.5214
G1 X132.905 Y91.398 E10.5469
G1 X133.303 Y92.456 E10.5920
G1 X133.484 Y93.032 E10.6161
G1 X133.774 Y94.188 E10.6637
G1 X133.875 Y94.720 E10.6853
G1 X134.021 Y95.797 E10.7287
G1 X134.094 Y96.910 E10.7732
G1 X134.214 Y101.968 E10.9751
G1 X134.205 Y103.613 E11.0408
G1 X134.104 Y105.656 E11.1224
G1 X135.161 Y106.170 E11.1693
G1 X135.547 Y106.386 E11.1870
G1 X136.326 Y106.869 E11.2236
G1 X137.355 Y107.621 E11.2744
G1 X138.056 Y108.221 E11.3113
G1 X138.861 Y109.019 E11.3565
G1 X139.374 Y109.629 E11.3883
G1 X139.897 Y110.347 E11.4238
G1 X140.195 Y110.649 E11.4407
G1 X140.678 Y111.220 E11.4706
G1 X141.229 Y111.973 E11.5078
G1 X141.649 Y112.663 E11.5400
G1 X141.982 Y113.310 E11.5691
G1 X142.310 Y114.048 E11.6013
G1 X142.578 Y114.810 E11.6336
G1 X142.786 Y115.591 E11.6658
G1 X142.866 Y115.990 E11.6821
G1 X143.049 Y117.175 E11.7299
G1 X143.102 Y118.001 E11.7629
G1 X143.099 Y118.939 E11.8004
G1 X143.000 Y120.173 E11.8498
G1 X142.905 Y120.872 E11.8779
G1 X142.726 Y121.837 E11.9171
G1 X142.587 Y122.427 E11.9413
G1 X142.373 Y123.200 E11.9733
G1 X141.995 Y124.256 E12.0181
G1 X141.872 Y124.550 E12.0308
G1 X141.306 Y125.699 E12.0819
G1 X140.699 Y126.675 E12.1278
G1 X140.547 Y126.891 E12.1383
G1 X140.056 Y127.533 E12.1706
G1 X139.490 Y128.169 E12.2046
G1 X139.188 Y128.566 E12.2245
G1 X138.704 Y129.154 E12.2549
G1 X138.154 Y129.751 E12.2873
G1 X138.690 Y130.702 E12.3309
G1 X138.969 Y131.269 E12.3561
G1 X139.433 Y132.370 E12.4038
G1 X139.641 Y132.958 E12.4287
G1 X139.880 Y133.730 E12.4609
G1 X140.000 Y134.229 E12.4814
G1 X140.141 Y134.889 E12.5083
G1 X140.278 Y135.685 E12.5406
G1 X140.373 Y136.644 E12.5790
G1 X140.413 Y137.548 E12.6151
G1 X140.413 Y138.001 E12.6332
G1 X140.366 Y139.095 E12.6769
G1 X140.322 Y139.613 E12.6977
G1 X140.198 Y140.616 E12.7380
G1 X140.025 Y141.615 E12.7785
G1 X139.696 Y143.163 E12.8416
G1 X139.232 Y145.066 E12.9198
G1 X138.982 Y145.975 E12.9575
G1 X138.603 Y147.158 E13.0070
G1 X138.328 Y147.889 E13.0382
G1 X138.017 Y148.628 E13.0702
G1 X137.856 Y149.336 E13.0992
G1 X137.714 Y149.818 E13.1192
G1 X137.313 Y150.959 E13.1675
G1 X136.863 Y151.910 E13.2095
G1 X136.709 Y152.196 E13.2225
G1 X136.298 Y152.891 E13.2547
G1 X135.833 Y153.552 E13.2869
G1 X135.318 Y154.174 E13.3192
G1 X134.755 Y154.753 E13.3514
G1 X134.148 Y155.286 E13.3837
G1 X133.500 Y155.769 E13.4159
G1 X132.856 Y156.178 E13.4464
G1 X132.147 Y156.566 E13.4786
G1 X131.410 Y156.897 E13.5109
G1 X130.649 Y157.168 E13.5431
G1 X129.869 Y157.378 E13.5753
G1 X129.200 Y157.496 E13.6025
G1 X128.914 Y158.363 E13.6389
G1 X128.532 Y159.262 E13.6779
G1 X128.175 Y159.987 E13.7101
G1 X127.762 Y160.681 E13.7424
G1 X127.487 Y161.084 E13.7618
G1 X126.773 Y162.020 E13.8088
G1 X126.227 Y162.615 E13.8411
G1 X125.450 Y163.328 E13.8831
G1 X124.822 Y163.836 E13.9154
G1 X124.156 Y164.293 E13.9476
G1 X123.768 Y164.525 E13.9657
G1 X122.724 Y165.082 E14.0129
G1 X121.638 Y165.517 E14.0596
G1 X121.232 Y165.653 E14.0767
G1 X120.456 Y165.879 E14.1089
G1 X119.332 Y166.093 E14.1546
G1 X118.113 Y166.222 E14.2035
G1 X117.023 Y166.221 E14.2470
G1 X115.833 Y166.124 E14.2947
G1 X114.859 Y165.945 E14.3342
G1 X113.685 Y165.636 E14.3827
G1 X112.811 Y165.312 E14.4199
G1 X111.809 Y164.852 E14.4639
G1 X111.287 Y164.560 E14.4877
G1 X110.366 Y163.972 E14.5314
G1 X109.813 Y163.549 E14.5591
G1 X108.998 Y162.839 E14.6023
G1 X108.379 Y162.189 E14.6381
G1 X107.696 Y161.357 E14.6811
G1 X107.150 Y160.539 E14.7203
G1 X106.615 Y159.588 E14.7639
G1 X106.336 Y158.983 E14.7905
G1 X105.984 Y158.075 E14.8293
G1 X105.801 Y157.501 E14.8534
G1 X105.126 Y157.376 E14.8808
G1 X104.346 Y157.167 E14.9130
G1 X103.585 Y156.896 E14.9453
G1 X102.426 Y156.346 E14.9965
G1 X101.732 Y155.931 E15.0287
G1 X101.074 Y155.463 E15.0610
G1 X100.455 Y154.944 E15.0932
G1 X99.879 Y154.378 E15.1254
G1 X99.275 Y153.677 E15.1624
G1 X98.793 Y153.029 E15.1946
G1 X98.363 Y152.344 E15.2269
G1 X97.992 Y151.635 E15.2588
G1 X97.471 Y150.387 E15.3128
G1 X97.380 Y150.122 E15.3240
G1 X97.083 Y149.082 E15.3671
G1 X96.984 Y148.623 E15.3859
G1 X96.610 Y147.734 E15.4244
G1 X96.401 Y147.168 E15.4485
G1 X96.187 Y146.526 E15.4755
G1 X95.799 Y145.180 E15.5314
G1 X95.375 Y143.466 E15.6018
G1 X94.947 Y141.473 E15.6832
G1 X94.815 Y140.693 E15.7148
G1 X94.713 Y139.903 E15.7466
G1 X94.631 Y138.990 E15.7832
G1 X94.591 Y137.941 E15.8251
G1 X94.601 Y137.198 E15.8547
G1 X94.668 Y136.158 E15.8963
G1 X94.830 Y135.011 E15.9425
G1 X95.072 Y133.926 E15.9869
G1 X95.206 Y133.442 E16.0070
G1 X95.552 Y132.409 E16.0504
G1 X95.784 Y131.823 E16.0756
G1 X96.111 Y131.085 E16.1078
G1 X96.614 Y130.143 E16.1504
G1 X96.847 Y129.756 E16.1685
G1 X96.414 Y129.285 E16.1940
G1 X95.814 Y128.570 E16.2312
G1 X95.492 Y128.148 E16.2524
G1 X94.786 Y127.336 E16.2954
G1 X94.297 Y126.659 E16.3287
G1 X93.651 Y125.626 E16.3773
G1 X93.244 Y124.805 E16.4139
G1 X93.090 Y124.456 E16.4291
G1 X92.794 Y123.704 E16.4614
G1 X92.655 Y123.279 E16.4792
G1 X92.336 Y122.121 E16.5272
G1 X92.244 Y121.706 E16.5441
G1 X92.104 Y120.936 E16.5754
G1 X92.017 Y120.325 E16.6000
G1 X91.935 Y119.519 E16.6323
G1 X91.910 Y119.116 E16.6485
G1 X91.895 Y118.161 E16.6866
G1 X91.962 Y117.071 E16.7302
G1 X92.067 Y116.329 E16.7601
G1 X92.223 Y115.537 E16.7923
G1 X92.441 Y114.759 E16.8245
G1 X92.728 Y113.975 E16.8579
G1 X93.051 Y113.234 E16.8901
G1 X93.431 Y112.522 E16.9223
G1 X94.031 Y111.610 E16.9659
G1 X94.525 Y110.971 E16.9981
G1 X95.114 Y110.330 E17.0329
G1 X95.829 Y109.377 E17.0804
G1 X96.368 Y108.775 E17.1127
G1 X97.039 Y108.135 E17.1497
G1 X97.895 Y107.425 E17.1941
G1 X98.778 Y106.802 E17.2372
G1 X99.700 Y106.245 E17.2802
G1 X100.421 Y105.872 E17.3126
G1 X100.895 Y105.663 E17.3333
G1 X100.793 Y103.536 E17.4183
G1 X100.787 Y101.896 E17.4837
G1 X100.907 Y96.887 E17.6837
G1 X100.982 Y95.779 E17.7280
G1 X101.146 Y94.585 E17.7761
G1 X101.356 Y93.621 E17.8155
G1 X101.501 Y93.082 E17.8378
G1 X101.796 Y92.161 E17.8764
G1 X102.237 Y91.066 E17.9235
G1 X102.798 Y89.918 E17.9745
G1 X103.114 Y89.349 E18.0005
G1 X103.410 Y88.849 E18.0237
G1 X104.109 Y87.767 E18.0751
G1 X104.905 Y86.648 E18.1299
;PRINTING: dragoncito.stl
;PRINTING_ID: 0
G1 F3600 E12.1299
G0 F6000 X127.323 Y146.850
;TYPE:WALL-INNER
;WIDTH:0.400
G1 F1500 E18.1299
G1 F600 X126.928 Y146.878 E18.1457
G1 X126.642 Y146.850 E18.1572
G1 X126.288 Y146.749 E18.1719
G1 X126.015 Y146.601 E18.1843
G1 X125.718 Y146.347 E18.1999
G1 X124.367 Y144.988 E18.2763
G1 X124.081 Y144.621 E18.2949
G1 X123.951 Y144.389 E18.3055
G1 X123.868 Y144.173 E18.3148
G1 X123.819 Y143.949 E18.3239
G1 X123.809 Y143.821 E18.3290
G1 X123.817 Y143.548 E18.3399
G1 X123.880 Y143.183 E18.3547
G1 X123.998 Y142.777 E18.3716
G1 X124.481 Y141.510 E18.4257
G1 X124.672 Y140.895 E18.4514
G1 X124.756 Y140.427 E18.4704
G1 X124.779 Y139.962 E18.4890
G1 X124.753 Y139.690 E18.4999
G1 X124.681 Y139.400 E18.5118
G1 X124.509 Y139.082 E18.5262
G1 X124.179 Y138.807 E18.5434
G1 X123.678 Y138.786 E18.5634
G1 X123.304 Y138.967 E18.5800
